X: 130587
T: Mary Josephine's 
C: BB
M: C|
L: 1/8
Q: 1/8=320
R: hornpipe 
K: D 
AG|"D"FDFA "G"GFGE|"D"DFAd "Bm"fedB|"D"AFdF "Bm7"AFBF|"D"AFDF "A7"E2 AG|
"D"FDFA "G"GFGE|"D"DFAd fgfe|"D"dcdA "A"(3Bcd AG|"D"F2 "G"D2 "D"D2 :|
zA|"Bm"DBAF "Em"EDEF|"D"Afed "Bm"BABc|"D"df (3fef "Bm"afbf|"F#m"afec "A"A2 ce|
"Bm"dBAF "Em"EDEF|"D"Adfa "Em"bgeg|"D"fa (3a^ga "A7"=gece|"A"(3ege "G"d2 "D"d2 :|
